build/img/main_screen/icons/money.svg

<svg width="30" height="30" viewBox="0 0 30 30" fill="none" xmlns="http://www.w3.org/2000/svg">
<path d="M23.9625 8.2999C23.4249 5.5874 21.4125 4.3999 18.6125 4.3999H7.63745C4.33745 4.3999 2.13745 6.0499 2.13745 9.8999V16.3374C2.13745 19.1124 3.27495 20.7374 5.14995 21.4374C5.42495 21.5374 5.72495 21.6249 6.03745 21.6749C6.53745 21.7874 7.07495 21.8374 7.63745 21.8374H18.625C21.925 21.8374 24.125 20.1874 24.125 16.3374V9.8999C24.125 9.3124 24.0749 8.7874 23.9625 8.2999ZM6.91245 14.9999C6.91245 15.5124 6.48745 15.9374 5.97495 15.9374C5.46245 15.9374 5.03745 15.5124 5.03745 14.9999V11.2499C5.03745 10.7374 5.46245 10.3124 5.97495 10.3124C6.48745 10.3124 6.91245 10.7374 6.91245 11.2499V14.9999ZM13.125 16.4249C11.3 16.4249 9.82495 14.9499 9.82495 13.1249C9.82495 11.2999 11.3 9.8249 13.125 9.8249C14.95 9.8249 16.425 11.2999 16.425 13.1249C16.425 14.9499 14.95 16.4249 13.125 16.4249ZM21.1999 14.9999C21.1999 15.5124 20.775 15.9374 20.2624 15.9374C19.75 15.9374 19.325 15.5124 19.325 14.9999V11.2499C19.325 10.7374 19.75 10.3124 20.2624 10.3124C20.775 10.3124 21.1999 10.7374 21.1999 11.2499V14.9999Z" fill="#B0CB1F"/>
<path d="M27.875 13.6501V20.0876C27.875 23.9376 25.675 25.6001 22.3625 25.6001H11.3875C10.45 25.6001 9.61246 25.4626 8.88746 25.1876C8.29996 24.9751 7.78746 24.6626 7.37496 24.2626C7.14996 24.0501 7.32496 23.7126 7.63746 23.7126H18.6125C23.2375 23.7126 25.9875 20.9626 25.9875 16.3501V9.9001C25.9875 9.6001 26.325 9.4126 26.5375 9.6376C27.3875 10.5376 27.875 11.8501 27.875 13.6501Z" fill="#B0CB1F"/>
</svg>

<svg width="30" height="30" fill="none" xmlns="http://www.w3.org/2000/svg"><path d="M23.962 8.3c-.537-2.713-2.55-3.9-5.35-3.9H7.638c-3.3 0-5.5 1.65-5.5 5.5v6.437c0 2.775 1.138 4.4 3.013 5.1.275.1.575.188.887.238a7.31 7.31 0 0 0 1.6.162h10.988c3.3 0 5.5-1.65 5.5-5.5V9.9a7.04 7.04 0 0 0-.163-1.6ZM6.912 15a.944.944 0 0 1-.937.937.944.944 0 0 1-.938-.937v-3.75c0-.513.425-.938.938-.938.512 0 .937.425.937.938V15Zm6.213 1.425a3.297 3.297 0 0 1-3.3-3.3c0-1.825 1.475-3.3 3.3-3.3 1.825 0 3.3 1.475 3.3 3.3 0 1.825-1.475 3.3-3.3 3.3ZM21.2 15a.944.944 0 0 1-.938.937.944.944 0 0 1-.937-.937v-3.75c0-.513.425-.938.937-.938.513 0 .938.425.938.938V15Z" fill="#B0CB1F"/><path d="M27.875 13.65v6.438c0 3.85-2.2 5.512-5.512 5.512H11.386c-.937 0-1.775-.137-2.5-.412a4.215 4.215 0 0 1-1.512-.925c-.225-.213-.05-.55.262-.55h10.976c4.625 0 7.375-2.75 7.375-7.363V9.9c0-.3.337-.487.55-.262.85.9 1.337 2.212 1.337 4.012Z" fill="#B0CB1F"/></svg>
